public/assets/img/logo_thumb.svg

<svg height="92" viewBox="0 0 79 92" width="79" xmlns="http://www.w3.org/2000/svg"><g fill="none" fill-rule="evenodd"><path d="m0 0h79v79h-79z" fill="#fff" fill-rule="evenodd"/><path d="m1 1h77v77h-77z" stroke="#000" stroke-width="2"/><text fill="#191919" font-family="AGaramondPro-Regular, Adobe Garamond Pro" font-size="55"><tspan x="11.812102" y="54">P</tspan></text><path d="m32.243 46.749 4.416-1.035c.483-3.933 1.311-8.556 1.794-9.936 1.725-1.656 4.554-3.519 6.279-4.278-1.794-.621-5.451-1.449-9.66-2.139-1.932-.276-2.553-1.242-2.967-2.553-.69-2.07-1.242-4.14-1.725-6.348 10.488-.138 23.805 1.173 28.98 5.865 4.692 4.209 8.763 12.696 9.039 16.284.207 2.691-.138 4.209-2.622 6.279-5.658 4.692-15.939 6.762-21.735 7.383l-1.242-1.38-1.587 8.004 1.725 1.587-.483 2.139-5.934 2.691-.966-.552c-.069-4.83-.138-13.8.207-16.698l-.552-.276zm11.592-3.036c4.692-1.38 10.833-3.519 13.731-5.52-2.76-2.553-8.349-5.244-11.937-6.348-.483 4.14-1.311 9.108-1.794 11.868z" fill="#000" stroke="#fff" stroke-width="2"/></g></svg>

<?xml version="1.0" encoding="UTF-8"?>
<svg width="79px" height="92px" viewBox="0 0 79 92" version="1.1" xmlns="http://www.w3.org/2000/svg" xmlns:xlink="http://www.w3.org/1999/xlink">
    <!-- Generator: Sketch 49.1 (51147) - http://www.bohemiancoding.com/sketch -->
    <title>logo_50</title>
    <desc>Created with Sketch.</desc>
    <defs>
        <rect id="path-1" x="0" y="0" width="79" height="79"></rect>
    </defs>
    <g id="logo_50" stroke="none" stroke-width="1" fill="none" fill-rule="evenodd">
        <g id="Group">
            <g id="Rectangle-8">
                <use fill="#FFFFFF" fill-rule="evenodd" xlink:href="#path-1"></use>
                <rect stroke="#000000" stroke-width="2" x="1" y="1" width="77" height="77"></rect>
            </g>
            <text id="P" font-family="AGaramondPro-Regular, Adobe Garamond Pro" font-size="55" font-weight="normal" fill="#191919">
                <tspan x="11.8121019" y="54">P</tspan>
            </text>
            <path d="M32.243,46.749 L36.659,45.714 C37.142,41.781 37.97,37.158 38.453,35.778 C40.178,34.122 43.007,32.259 44.732,31.5 C42.938,30.879 39.281,30.051 35.072,29.361 C33.14,29.085 32.519,28.119 32.105,26.808 C31.415,24.738 30.863,22.668 30.38,20.46 C40.868,20.322 54.185,21.633 59.36,26.325 C64.052,30.534 68.123,39.021 68.399,42.609 C68.606,45.3 68.261,46.818 65.777,48.888 C60.119,53.58 49.838,55.65 44.042,56.271 L42.8,54.891 L41.213,62.895 L42.938,64.482 L42.455,66.621 L36.521,69.312 L35.555,68.76 C35.486,63.93 35.417,54.96 35.762,52.062 L35.21,51.786 L32.243,46.749 Z M43.835,43.713 C48.527,42.333 54.668,40.194 57.566,38.193 C54.806,35.64 49.217,32.949 45.629,31.845 C45.146,35.985 44.318,40.953 43.835,43.713 Z" id="P" stroke="#FFFFFF" stroke-width="2" fill="#000000"></path>
        </g>
    </g>
</svg>
